X: 69
T: Msza Święta - Credo
C: Józef Stefani
%%abc-version 2.0
%%abcx-abcm2ps-target-version 5.9.1 (29 Sep 2008)
%%abc-creator hum2abc beta
%%abcx-conversion-date 2021/10/04 07:38:41
%%abc-edited-by Andrzej Gręziak
%%abc-edited-by Kamil Watkowski
%%abcx-initial-encoding-date 2021-08-13
%%humdrum-veritas 1005342141
%%humdrum-veritas-data 1737403307
%%linebreak <none>
%%barnumbers 0
L: 1/4
M: C|
N: Derived from pl-kozmzk--mzk-m-26--004_stefani-jozef-msza-swieta-credo.krn
Q: "Allo moderato"
V: 1 clef=tenor
V: 2 clef=tenor
V: 3 clef=bass
V: 4 clef=treble
V: 5 clef=bass
K: Bb
[V:1] z4 | 
[V:2] z4 | 
[V:3] z4 | 
[V:4] [c2^F2][BG][GE] & D3x | 
[V:5] [A,2A,,2][G,G,,][E,E,,] | 
[V:1] z2zD, | 
[V:2] z2zD, | 
[V:3] z2zD, | 
[V:4] [AE]>[G=E][^FD]D | 
[V:5] [C,C,,]>[^C,^C,,][D,D,,]D, | 
[V:1] !accent!G,2!accent!A,2 | 
[V:2] G,2A,2 | 
[V:3] G,2A,2 | 
[V:4] G/D/B,/G/ A/^F/D/A/ | 
[V:5] G,/D,/B,,/G,/ A,/^F,/D,/A,/ | 
[V:1] !accent!B,2G,A, | 
[V:2] !accent!B,2G,A, | 
[V:3] B,2G,^F, | 
[V:4] B/G/D/B/ G/D/A/D/ | 
[V:5] B,/G,/D,/B,/ G,/D,/^F,/D,/ | 
[V:1] !accent!B,2C3/C/ | 
[V:2] G,2G,3/G,/ | 
[V:3] G,2E,3/E,/ | 
[V:4] B/G/D/B/ c/G/E/[c/G/] | 
[V:5] [G,2G,,2][E,2E,,2] | 
[V:1] !accent!D2A,D | 
[V:2] ^F,2F,F, | 
[V:3] D,2D,D, | 
[V:4] d2Ad & ^F3F | 
[V:5] D,2-D,D, & D,,/^F,,/A,,/D,/D,,x | 
[V:1] !accent!E2!accent!D2 | 
[V:2] ^F,2G,2 | 
[V:3] C,2B,,2 | 
[V:4] e/A/^F/e/ d/B/D/d/ | 
[V:5] C,CB,,B, | 
[V:1] DCB,C | 
[V:2] ^F,2G,G, | 
[V:3] A,,2G,,E, | 
[V:4] [d/^F/]D/[c/F/]D/ [B/G/]D/c/G/ | 
[V:5] A,,A,G,E, | 
[V:1] DFE3/C/ | 
[V:2] B,2G,3/A,/ | 
[V:3] F,D,C,3/F,/ | 
[V:4] [d/B/]F/[f/B/]F<[eG][c/A/] | 
[V:5] F,D,C,/C/C,/F,/ | 
[V:1] D2DB, | 
[V:2] B,2B,B, | 
[V:3] B,,2B,,B,, | 
[V:4] [d3B3F3]B | 
[V:5] B,,/D,/F,/B,/B,,B, | 
[V:1] !accent!G2FD | 
[V:2] B,2B,B,- | 
[V:3] E,2D,B, | 
[V:4] g2fd & B3[BF] | 
[V:5] E,2D,[B,B,,] | 
[V:1] E2DD | 
[V:2] B,2B,B, | 
[V:3] G,2F,F, | 
[V:4] [e2B2E2][dBF][dBF] | 
[V:5] [G,2G,,2][F,F,,][F,F,,] | 
[V:1] C3/D//C//B,C | 
[V:2] G,2G,A, | 
[V:3] E,2E,E, | 
[V:4] c3/d//c//Bc & G4 | 
[V:5] [E,4E,,4] | 
[V:1] D2DD | 
[V:2] G,^F,/=E,/F,F, | 
[V:3] D,2D,D, | 
[V:4] [d3A3][dA] & G^F/=E/FF | 
[V:5] [D,3D,,3]D, | 
[V:1] E2D2 | 
[V:2] ^F,2G,2 | 
[V:3] C,2B,,2 | 
[V:4] e/A/^F/e/ d/G/D/d/ | 
[V:5] C,CB,,B, | 
[V:1] DCB,A, | 
[V:2] ^F,2G,G, | 
[V:3] A,,2G,,C, | 
[V:4] [d/F/]D/[c/F/]D/ [B/G/]D/[A/G/]E/ | 
[V:5] A,,A,G,,C, | 
[V:1] B,2A,3/A,/ | 
[V:2] G,2G,3/^F,/ | 
[V:3] D,2D,3/D,/ | 
[V:4] [B/G/]D/[B/G/]D/ [A/G/]D/[A/^F/]D/ | 
[V:5] D,2[D,2D,,2] | 
[V:1] G,2G,A, | 
[V:2] G,2G,A,/=F,/ | 
[V:3] G,2G,=F,/E,/ | 
[V:4] G/B/d/g/G[A=F] | 
[V:5] G,,/G,/D,/B,,/G,,=F,/_E,/ | 
[V:1] B,2C2 | 
[V:2] F,2B,2 | 
[V:3] D,2B,,2 | 
[V:4] B2[d2B2] & F4 | 
[V:5] D,2B,,2 | 
[V:1] C2CF | 
[V:2] B,A,/G,/A,A, | 
[V:3] F,2F,F, | 
[V:4] c2[cA][fA] & F4 | 
[V:5] [F,3F,,3][F,F,,] | 
[V:1] D2CB, | 
[V:2] B,2A,B, | 
[V:3] B,,2F,D, | 
[V:4] [d2B2][cA]B & F4 | 
[V:5] B,,2F,D, | 
[V:1] C2CD/E/ | 
[V:2] A,2A,B,/C/ | 
[V:3] F,2F,F,/E,/ | 
[V:4] [c3A3][d/B/][e/c/] & F3-F | 
[V:5] F,3-F,/E,/ | 
[V:1] !accent!F2F3/E/ | 
[V:2] B,2G,3/A,/ | 
[V:3] D,2C,3/C,/ | 
[V:4] [f2-B2F2]f3/e/ & x2[f3/G3/]A/ | 
[V:5] D,2C,2 | 
[V:1] D2D2 | 
[V:2] B,2B,2 | 
[V:3] B,,2G,2 | 
[V:4] [d2B2][d2B2] | 
[V:5] B,,2[G,2G,,2] | 
[V:1] C3/D//C//B,C | 
[V:2] G,2G,G, | 
[V:3] E,2E,E, | 
[V:4] c3/d//c//Bc & G4 | 
[V:5] [E,4E,,4] | 
[V:1] D2Dz | 
[V:2] G,^F,/=E,/F,D | 
[V:3] D,2D,z | 
[V:4] [d2A2]-[dA]x & G^F/=E/Fx | 
[V:5] [D,2D,,2][D,D,,]D & x3z | 
[V:1] z2zD | 
[V:2] !accent!C2!accent!B,2 | 
[V:3] z4 | 
[V:4] z2z[dD] | 
[V:5] C2B,2 & z4 | 
[V:1] !accent!C2B,B, | 
[V:2] A,2G,G, | 
[V:3] z2zG,, | 
[V:4] [c2C2][BB,][BG] | 
[V:5] A,2G,G, & z2zG,, | 
[V:1] B,2A,G, | 
[V:2] G,2_E,=E, | 
[V:3] E,2C,^C, | 
[V:4] [B2G2]AG & x2_E=E | 
[V:5] E,2C,^C, | 
[V:1] ^F,>A,A,D | 
[V:2] D,>^F,F,F, | 
[V:3] D,2D,D, | 
[V:4] [^F2D2][AF][dF] | 
[V:5] D,2[D,D,,][D,D,,] | 
[V:1] C2G,2 | 
[V:2] G,2G,2 | 
[V:3] E,2E,2 | 
[V:4] c2G2 & G2G2 | 
[V:5] [E,4E,,4] | 
[V:1] =F,B,D3/F/ | 
[V:2] =F,2B,3/D/ | 
[V:3] F,2F,3/F,/ | 
[V:4] =F/D/B/F/ [d/B/]>F/[d/B/][f/d/] | 
[V:5] [F,2F,,2][D2B,2F,2] | 
[V:1] GFE3/C/ | 
[V:2] EDC3/A,/ | 
[V:3] F,2F,3/F,/ | 
[V:4] [ge][fd][e3/c3/][c/A/] | 
[V:5] [E4C4F,4] | 
[V:1] B,2B, ||  
[V:2] B,2B, ||  
[V:3] B,2B,, ||  
[V:4] B3 ||  
[V:5] [D3B,3] ||  
[V:1] D, [I:setbarnb 35]| 
[V:2] D, | 
[V:3] D, | 
[V:4] D | 
[V:5] D, | 
[V:1] G,2A,2 | 
[V:2] G,2A,2 | 
[V:3] G,2A,2 | 
[V:4] G/D/B,/G/ A/^F/D/A/ | 
[V:5] G,/D,/B,,/G,/ A,/^F,/D,/A,/ | 
[V:1] B,2G,A, | 
[V:2] B,2G,A, | 
[V:3] B,2G,^F, | 
[V:4] B/G/D/B/ G/D/A/D/ | 
[V:5] B,/G,/D,/B,/ G,/D,/^F,/D,/ | 
[V:1] B,2C3/C/ | 
[V:2] G,2G,3/G,/ | 
[V:3] G,2E,3/E,/ | 
[V:4] B/G/D/B/ c/G/E/[c/G/] | 
[V:5] [G,2G,,2][E,2E,,2] | 
[V:1] D2A,D | 
[V:2] ^F,2F,F, | 
[V:3] D,2D,D, | 
[V:4] d2Ad & ^F3F | 
[V:5] [D,3D,,3]D, | 
[V:1] !accent!E2!accent!D2 | 
[V:2] ^F,2G,2 | 
[V:3] C,2B,,2 | 
[V:4] e/A/^F/e/ d/G/D/d/ | 
[V:5] C,CB,,B, | 
[V:1] DCB,C | 
[V:2] ^F,2G,G, | 
[V:3] A,,2G,,E, | 
[V:4] [d/^F/]D/[c/F/]D/ [B/G/]D/c/G/ | 
[V:5] A,,A,G,E, | 
[V:1] DFE3/C/ | 
[V:2] B,2G,3/A,/ | 
[V:3] F,D,C,3/F,/ | 
[V:4] [d/B/]F/[f/B/]F<[eG][c/A/] | 
[V:5] F,D,C,/C/C,/F,/ | 
[V:1] D2DB, | 
[V:2] B,2B,B, | 
[V:3] B,,2B,,B,, | 
[V:4] [d3B3F3]B | 
[V:5] B,,/D,/F,/B,/B,,B,, | 
[V:1] !accent!G2!accent!F2 | 
[V:2] B,2B,2 | 
[V:3] E,2D,2 | 
[V:4] [g2G2][f2F2] & B4 | 
[V:5] E,2D,2 | 
[V:1] E2DD | 
[V:2] B,2B,B, | 
[V:3] G,2F,F, | 
[V:4] [e2B2E2][dBF][dBF] | 
[V:5] [G,2G,,2][F,F,,][F,F,,] | 
[V:1] C3/D//C//B,C | 
[V:2] G,2G,G, | 
[V:3] E,2E,E, | 
[V:4] c3/d//c//Bc & G4 | 
[V:5] [C,4C,,4] | 
[V:1] D2DD | 
[V:2] G,^F,/=E,/F,F, | 
[V:3] D,2D,D, | 
[V:4] [d3A3][dA] & G^F/=E/FF | 
[V:5] D,3D, & D,,3D, | 
[V:1] E2D2 | 
[V:2] ^F,2G,2 | 
[V:3] C,2B,,2 | 
[V:4] e/A/^F/e/ d/G/D/d/ | 
[V:5] C,CB,,B, | 
[V:1] DCB,A, | 
[V:2] ^F,2G,G, | 
[V:3] A,,2G,,C, | 
[V:4] [d/^F/]D/[c/F/]D/ [B/G/]D/[A/G/]D/ | 
[V:5] A,,A,G,,C, | 
[V:1] B,2A,3/A,/ | 
[V:2] G,2G,3/^F,/ | 
[V:3] D,2D,3/D,/ | 
[V:4] [B/G/]D/[B/G/]D/ [A/G/]D/[A/^F/]D/ | 
[V:5] D,2[D,2D,,2] | 
[V:1] G,2G,z | 
[V:2] G,2G,z | 
[V:3] G,2G,,z | 
[V:4] G/B/d/g/ G/D/[A/G/]E/ | 
[V:5] G,,/G,/D,/B,,/ G,,/B,,/C, | 
[V:1] z4 | 
[V:2] z4 | 
[V:3] z4 | 
[V:4] [B/G/]D/[B/G/]D/ [A/G/]D/[A/^F/]D/ | 
[V:5] D,2[C2A,2D,2] | 
[V:1] z4 | 
[V:2] z2G,2 | 
[V:3] z4 | 
[V:4] [G2D2]GG | 
[V:5] [B,2G,2]G,G, | 
[V:1] C2E2 | 
[V:2] G,4 | 
[V:3] E,2C,2 | 
[V:4] c2[e2c2] & G4 | 
[V:5] E,2C,2 | 
[V:1] !fermata!D4 |]  
[V:2] !fermata!=B,4 |]  
[V:3] !fermata!G,4 |]  
[V:4] [d4=B4G4] |]  
[V:5] [G,4G,,4] |]  


